Origami/64x64/apps/downloader-arrow.svg

<svg width="64" height="64" version="1" xmlns="http://www.w3.org/2000/svg">
 <path d="m58 36h-8v-27c0-1.4404-1.92-3-3-3h-30c-1.0803 0-3 1.5596-3 3v27h-8l26 22z" style="fill:#81d547"/>
 <path d="m17 6c-1.0804 0-3 1.5596-3 3v1c0-1.4404 1.9196-3 3-3h30c1.08 0 3 1.5596 3 3v-1c0-1.4404-1.92-3-3-3h-30zm-11 30l1.1816406 1h6.8183594v-1h-8zm44 0v1h6.818359l1.181641-1h-8z" style="fill:#ffffff;opacity:.2"/>
 <path d="M 6,37 32,59 58,37 56.818359,37 32,58 7.1816406,37 6,37 Z" style="opacity:.2"/>
</svg>

<svg xmlns="http://www.w3.org/2000/svg" width="64" height="64" version="1">
 <path style="fill:#81d547" d="M 58,36 50,36 50,9 C 50,7.5596 48.08,6 47,6 L 17,6 c -1.0803,0 -3,1.5596 -3,3 l 0,27 -8,0 26,22 z"/>
 <path style="opacity:0.2;fill:#ffffff" d="M 17 6 C 15.9196 6 14 7.5596 14 9 L 14 10 C 14 8.5596 15.9196 7 17 7 L 47 7 C 48.08 7 50 8.5596 50 10 L 50 9 C 50 7.5596 48.08 6 47 6 L 17 6 z M 6 36 L 7.1816406 37 L 14 37 L 14 36 L 6 36 z M 50 36 L 50 37 L 56.818359 37 L 58 36 L 50 36 z"/>
 <path style="opacity:0.2" d="M 6,37 32,59 58,37 56.818359,37 32,58 7.1816406,37 6,37 Z"/>
</svg>
